public/images/dropbox.svg

<svg class="rs-main-logo" id="rs-main-logo-dropbox" width="40" height="36"
     xml:space="preserve" stroke-miterlimit="1.4142"
     xmlns="http://www.w3.org/2000/svg" viewBox="0 0 104 97"
     stroke-linejoin="round" version="1.1" clip-rule="evenodd">
      <path d="m30.691 0l-30.691 20.039 21.221 16.994 30.946-19.108-21.476-17.925z" fill="#007ee5"/>
    <path d="m0 54.028l30.691 20.039 21.476-17.926-30.945-19.108-21.222 16.995z" fill="#007ee5"/>
    <path d="m52.167 56.142l21.477 17.926 30.696-20.039-21.227-16.995-30.946 19.108z" fill="#007ee5"/>
    <path d="m104.34 20.039l-30.696-20.039-21.477 17.925 30.946 19.108 21.227-16.994z" fill="#007ee5"/>
    <path d="m52.23 59.998l-21.538 17.873-9.218-6.018v6.747l30.756 18.443 30.756-18.443v-6.747l-9.216 6.018-21.54-17.873z" fill="#007ee5"/>
    </svg>

<svg class="rs-main-logo" width="40" height="36" stroke-miterlimit="1.414" xmlns="http://www.w3.org/2000/svg" viewBox="0 0 104 97" stroke-linejoin="round" clip-rule="evenodd"><path d="M30.691 0L0 20.039l21.221 16.994 30.946-19.108L30.691 0zM0 54.028l30.691 20.039 21.476-17.926-30.945-19.108L0 54.028zm52.167 2.114l21.477 17.926 30.696-20.039-21.227-16.995-30.946 19.108zm52.173-36.103L73.644 0 52.167 17.925l30.946 19.108 21.227-16.994z" fill="#007ee5"/><path d="M52.23 59.998L30.692 77.871l-9.218-6.018V78.6L52.23 97.043 82.986 78.6v-6.747l-9.216 6.018-21.54-17.873z" fill="#007ee5"/></svg>
